X:1
T:Title
%%score { ( 1 3 ) | ( 2 4 ) }
L:1/8
M:6/8
K:Ab
V:1 treble nm="Grand Piano"
V:3 treble 
V:2 bass 
V:4 bass 
V:1
 z3 z2[Q:1/4=100] [CE] | [CE]2 [CE] [_C=D][=CE][_DF] | [CE]2 [CA] [Ec]2 [Ec] | c2 B FGB | %4
 [CA]2 [DF] [CE]2 [CE] | [CE]2 [CE] [_C=D][=CE][_DF] | [CE]2 [CA] [Ec]3 | [EB][Ec][EB] AGF | %8
[M:7/8] E-E-E- E3 z |[M:3/4] [Ec]>[DB] [CA]C- [CF][CA] | [DG]2 [Gd] .[Gd]3 | d>c BF GF | %12
 [CE]2 c c2 c/d/ | e2 c [=Ec]2 [EG] | [GB]2 [FA][FA] GF | EA c d2 G |[M:5/8] [CA]-[CA]- [CA]3 |] %17
V:2
 z3 z2 [A,,A,] | [A,,A,]2 [A,,A,] [A,,A,][A,,A,][A,,A,] | [A,,A,]2 [A,,E,] [A,,A,]2 [A,,A,] | %3
 [E,A,E]2 [E,G,D] [E,B,D][E,B,D][E,G,D] | [A,,A,]2 [A,,A,] [A,,A,]2 [A,,A,] | %5
 [A,,A,]2 [A,,A,] [A,,A,][A,,A,][A,,A,] | [A,,A,]2 [A,,E,] [A,,A,]3 | %7
 [B,,G,][B,,A,][B,,G,] F,B,[B,,A,B,] |[M:7/8] [G,B,]2 A, B,3 z | %9
[M:3/4] [A,,A,]>[A,,A,] [A,,A,] [A,,A,]2 [A,,E,] | [B,,E,]2 [E,B,] .[E,B,]3 | %11
 [E,B,E]>[E,A,E] [E,G,E][E,B,D] [E,B,D][E,G,D] | z2 z2 z [A,E] | %13
 [A,CA]2 [A,E][K:bass] [C,G,]2 [C,C] | [F,C]2 .[F,C]2 E[D,A,D] | %15
 [E,A,C][E,A,C] [E,A,E] [E,G,E]2 [E,B,D] |[M:5/8] [A,,A,]-[A,,A,]- [A,,A,]3 |] %17
V:3
 x6 | x6 | x6 | x6 | x6 | x6 | x6 | z3 .=D3 |[M:7/8] z2 C D3 z |[M:3/4] z2 z E z2 | x6 | x6 | x6 | %13
 x6 | x6 | x6 |[M:5/8] x5 |] %17
V:4
 x6 | x6 | x6 | x6 | x6 | x6 | x6 | z3 .B,,3 |[M:7/8] E,-E,-E,- E,3 z |[M:3/4] x6 | x6 | x6 | %12
 [A,,A,]2 [A,E] [A,E]2 z/ B,/ | x3[K:bass] x3 | z2 z .[D,D]3 | x6 |[M:5/8] x5 |] %17

